src/assets/images/ri_google-fill.svg

<svg width="30" height="31" viewBox="0 0 30 31" fill="none" xmlns="http://www.w3.org/2000/svg">
<g id="ri:google-fill">
<path id="Vector" d="M3.83 9.82891C4.87001 7.75796 6.46547 6.01705 8.43804 4.80074C10.4106 3.58444 12.6826 2.94068 15 2.94141C18.3688 2.94141 21.1988 4.18016 23.3625 6.19766L19.7788 9.78266C18.4825 8.54391 16.835 7.91266 15 7.91266C11.7438 7.91266 8.9875 10.1127 8.00625 13.0664C7.75625 13.8164 7.61375 14.6164 7.61375 15.4414C7.61375 16.2664 7.75625 17.0664 8.00625 17.8164C8.98875 20.7714 11.7438 22.9702 15 22.9702C16.6813 22.9702 18.1125 22.5264 19.2325 21.7764C19.8818 21.3489 20.4377 20.7942 20.8665 20.1458C21.2953 19.4974 21.5882 18.7687 21.7275 18.0039H15V13.1689H26.7725C26.92 13.9864 27 14.8389 27 15.7252C27 19.5327 25.6375 22.7377 23.2725 24.9127C21.205 26.8227 18.375 27.9414 15 27.9414C13.3583 27.9421 11.7325 27.6192 10.2157 26.9912C8.69881 26.3633 7.32056 25.4426 6.1597 24.2817C4.99884 23.1208 4.07812 21.7426 3.45017 20.2257C2.82222 18.7089 2.49934 17.0831 2.5 15.4414C2.5 13.4239 2.9825 11.5164 3.83 9.82891Z" fill="black"/>
</g>
</svg>

<svg width="30" height="31" fill="none" xmlns="http://www.w3.org/2000/svg"><path d="M3.83 9.829A12.495 12.495 0 0 1 15 2.94c3.369 0 6.199 1.24 8.363 3.257l-3.584 3.585c-1.296-1.24-2.944-1.87-4.779-1.87-3.256 0-6.012 2.2-6.994 5.153-.25.75-.392 1.55-.392 2.375s.142 1.625.392 2.375C8.99 20.771 11.744 22.97 15 22.97c1.681 0 3.113-.444 4.233-1.194a5.75 5.75 0 0 0 2.494-3.772H15v-4.835h11.773c.147.817.227 1.67.227 2.556 0 3.808-1.363 7.013-3.727 9.188-2.068 1.91-4.898 3.028-8.273 3.028a12.493 12.493 0 0 1-12.5-12.5c0-2.017.482-3.925 1.33-5.612Z" fill="#000"/></svg>
